X: 1
T:Tempest, The
T:Angry Carpenter, The
R:reel
H:See also #722
H:Some friends of mine came up with the second name. A carpenter was
H:working outside their window while they were having a session.
H:After about 37 reels he stuck his head in the window and
H:shouted: "Could you stop playing the same tune all the time!".
Z:id:hn-reel-282
M:C|
K:Ddor
d2cA GEE^F|GEcE dEcE|d2cA GEE^F|GEcE EDD2|
d2cA GEE^F|GEcE dEcE|DEFG AGcA|GECD EDD2:|
|:~d3e cAGc|AdcA GE~E2|~d3e cdef|edcA daag|
~f3d edcd|cAGc AcGE|DEFG AGcA|GECD EDD2:|
